logos/tix_africa/tix_africa.svg

<svg width="113" height="23" viewBox="0 0 113 23" fill="none" xmlns="http://www.w3.org/2000/svg">
<path d="M109.649 13.868C109.932 12.0707 109.318 10.7835 107.973 10.3949C106.321 9.90916 105.094 10.6864 104.291 12.7508C103.867 12.7508 103.395 12.7508 102.923 12.7508C102.451 12.7508 102.002 12.7508 101.554 12.7508C101.176 10.8321 103.135 8.20906 105.283 7.91761C106.651 7.72331 108.115 7.7476 109.46 8.03905C111.159 8.40335 112.41 9.73915 112.552 11.4878C112.858 15.1795 112.858 18.8711 112.976 22.6357C111.82 22.6357 110.923 22.6357 109.956 22.6357C109.861 22.2714 109.743 21.9071 109.602 21.4456C107.879 22.9028 105.991 23.3157 103.914 22.7085C102.049 22.1499 101.034 20.7656 100.987 18.7983C100.94 16.831 101.884 15.2524 103.749 14.7909C105.66 14.3052 107.619 14.1594 109.649 13.868ZM106.368 20.3527C108.445 20.3527 109.743 19.2112 109.838 17.2682C109.861 16.6853 109.72 16.321 109.082 16.3939C107.997 16.491 106.864 16.4424 105.825 16.7339C105.212 16.9039 104.457 17.4625 104.197 18.0454C103.607 19.4055 104.575 20.3527 106.368 20.3527Z" fill="#FC6435"/>
<path d="M52.7239 22.6357C51.7091 22.6357 50.8122 22.6357 49.8446 22.6357C49.7738 22.2957 49.703 21.9799 49.6086 21.5428C49.3726 21.6399 49.1602 21.7128 48.9714 21.8342C47.3901 23 45.6673 23.1943 43.8264 22.6843C42.08 22.1985 41.0888 20.9599 40.9708 19.0169C40.8292 17.0253 41.5136 15.4952 43.2364 14.9609C44.8885 14.4509 46.6821 14.3052 48.4286 14.0866C49.8682 13.9166 49.9154 13.9166 49.6322 12.5079C49.3254 11.0993 48.6882 10.4435 47.4845 10.2978C45.9977 10.1278 45.1009 10.6864 44.4637 12.0465C44.322 12.3622 43.8972 12.6779 43.5904 12.7265C42.8588 12.8236 42.1272 12.7508 41.3484 12.7508C41.4428 10.9535 42.1508 9.64202 43.4488 8.71911C45.5493 7.23759 47.815 7.26187 50.057 8.25765C52.1575 9.20485 52.7239 11.1964 52.7475 13.358C52.7475 16.4182 52.7239 19.4541 52.7239 22.6357ZM49.6558 16.2724C48.051 16.491 46.5641 16.5639 45.1481 16.9282C44.6525 17.0496 44.1096 17.924 44.0388 18.5069C43.9916 19.0169 44.4873 19.8427 44.9593 20.0612C46.1629 20.6441 47.4373 20.4256 48.523 19.6484C49.5614 18.9197 49.7974 17.8025 49.6558 16.2724Z" fill="#FC6435"/>
<path d="M32.4038 22.5628C32.1678 22.6357 32.1442 22.66 32.097 22.66C28.9817 22.8057 28.9817 22.8057 27.2825 20.1098C26.716 19.2112 26.126 18.3126 25.4652 17.2439C24.5684 18.6526 23.6951 19.8912 22.9635 21.227C22.3735 22.32 21.6419 22.9271 20.3675 22.7086C19.8482 22.6114 19.2818 22.6843 18.503 22.6843C19.6594 20.7899 20.6035 18.9926 21.8071 17.3654C22.9871 15.7624 23.1287 14.4752 21.8071 12.8479C20.6507 11.4393 19.8246 9.76346 18.6918 7.96621C19.919 7.96621 20.9575 7.91763 21.9723 8.01478C22.2555 8.03907 22.5387 8.50053 22.7511 8.81626C23.6479 10.1763 24.4976 11.5607 25.4416 13.0908C26.362 11.6336 27.188 10.4192 27.8961 9.10771C28.3681 8.20908 28.9581 7.82048 29.9493 7.94192C30.5865 8.01478 31.271 7.96621 32.1678 7.96621C30.7754 10.1763 29.5717 12.2408 28.2501 14.208C27.7781 14.9366 27.8017 15.4467 28.2501 16.1267C29.6661 18.1911 30.9878 20.3284 32.4038 22.5628Z" fill="#FC6435"/>
<path d="M95.4176 13.3094C94.4027 10.7592 92.8451 9.81202 90.6266 10.3463C88.6442 10.8321 87.3225 13.0422 87.5349 15.5924C87.8182 19.0655 90.0366 20.9841 92.8923 20.0855C93.6239 19.8669 94.5444 19.284 94.7804 18.6283C95.3232 17.1953 96.2672 17.3654 97.3056 17.4868C97.6124 17.5111 97.8956 17.6325 98.2025 17.7054C97.518 21.2513 94.6152 23.2672 90.7918 22.9028C87.0157 22.5385 84.4905 19.5269 84.4669 15.3495C84.4433 11.1964 86.8505 8.08763 90.3906 7.72332C94.686 7.28615 97.4236 9.08341 98.2261 13.1151C97.2584 13.1879 96.3144 13.2608 95.4176 13.3094Z" fill="#FC6435"/>
<path d="M64.5949 2.64729C61.5268 2.96302 60.63 4.1531 61.0312 7.16471C61.0784 7.45616 61.5268 7.84476 61.8337 7.89333C62.6833 7.99048 63.5329 7.91762 64.4769 7.91762C64.4769 8.84053 64.4769 9.61772 64.4769 10.5406C63.3441 10.5406 62.2585 10.5406 61.0312 10.5406C61.0312 14.6209 61.0312 18.5554 61.0312 22.5871C59.9692 22.5871 59.0724 22.5871 58.0104 22.5871C58.0104 18.604 58.0104 14.6452 58.0104 10.5892C57.4675 10.5649 57.0663 10.5406 56.6415 10.5406C55.4143 10.5164 54.7535 9.472 55.3671 8.3305C55.5087 8.06334 56.0751 7.96619 56.4763 7.94191C58.0104 7.86904 57.9632 7.89333 58.034 6.33895C58.0812 5.2946 58.152 4.22596 58.4824 3.25447C59.1904 1.11719 61.5504 -0.291464 63.7453 0.0485567C64.0521 0.0971312 64.4769 0.558588 64.5477 0.89861C64.6893 1.43293 64.5949 2.01582 64.5949 2.64729Z" fill="#FC6435"/>
<path d="M2.40727 10.5407C1.62845 10.5407 0.849624 10.5407 0 10.5407C0 9.64203 0 8.86484 0 8.01478C0.283208 7.99049 0.519215 7.94192 0.731621 7.94192C2.64328 7.91763 2.54887 8.25765 2.54887 6.04752C2.54887 5.05174 2.54887 4.03168 2.54887 2.8416C3.32769 2.8416 4.01211 2.86589 4.69653 2.8416C5.35735 2.79303 5.61696 3.08447 5.56976 3.76452C5.52256 4.78458 5.59336 5.78036 5.52256 6.80042C5.47536 7.72334 5.85297 8.01478 6.70259 7.96621C7.50501 7.91763 8.33104 7.96621 9.20426 7.96621C9.20426 8.86483 9.20426 9.61774 9.20426 10.5892C8.30744 10.5892 7.38701 10.6378 6.46658 10.5892C5.73496 10.5407 5.49896 10.8321 5.52256 11.5607C5.54616 13.4308 5.52256 15.2767 5.52256 17.1468C5.52256 19.4298 6.25418 20.1584 8.49624 20.1584C8.68505 20.1584 8.87385 20.1584 9.18066 20.1584C9.18066 20.9842 9.18066 21.7614 9.18066 22.5628C5.82937 24.0444 2.57247 21.9071 2.54887 18.1183C2.52527 15.7381 2.54887 13.358 2.52527 10.9535C2.52527 10.8807 2.47807 10.8078 2.40727 10.5407Z" fill="#FC6435"/>
<path d="M67.5686 8.01476C68.4891 8.01476 69.3623 8.01476 70.3299 8.01476C70.3771 8.52479 70.4243 9.03483 70.4951 9.71487C71.5808 8.50051 72.7372 7.60188 74.5072 7.82047C74.5072 8.54908 74.5781 9.2777 74.4836 9.95774C74.4364 10.2735 74.0588 10.6864 73.7756 10.7592C71.5808 11.2935 70.4951 12.6051 70.4951 14.9366C70.4715 17.4625 70.4951 20.0127 70.4951 22.6114C69.4803 22.6114 68.5835 22.6114 67.5923 22.6114C67.5687 17.8025 67.5686 12.9936 67.5686 8.01476Z" fill="#FC6435"/>
<path d="M12.5556 22.6114C12.5556 17.7054 12.5556 12.9208 12.5556 7.94192C13.3816 7.94192 14.1605 7.84477 14.8921 7.99049C15.1517 8.03907 15.4585 8.64625 15.4585 9.01055C15.5057 12.6536 15.4821 16.2724 15.4821 19.9155C15.4821 20.7899 15.4821 21.6642 15.4821 22.6114C14.4673 22.6114 13.5704 22.6114 12.5556 22.6114Z" fill="#FC6435"/>
<path d="M77.6697 8.01479C78.6138 8.01479 79.5106 8.01479 80.5018 8.01479C80.5018 12.8722 80.5018 17.7054 80.5018 22.6114C79.5814 22.6114 78.661 22.6114 77.6697 22.6114C77.6697 17.7783 77.6697 12.9694 77.6697 8.01479Z" fill="#FC6435"/>
<path d="M38.1387 20.9113C38.1623 22.0285 37.3363 22.9028 36.2507 22.9271C35.1887 22.9514 34.339 22.077 34.3154 20.9355C34.3154 19.8183 35.1651 18.9197 36.2035 18.8954C37.2655 18.8954 38.1151 19.794 38.1387 20.9113Z" fill="#FC6435"/>
<path d="M14.0188 4.49313C12.9096 4.49313 12.2016 3.74022 12.2016 2.59872C12.2016 1.45722 12.9332 0.680032 14.0188 0.680032C15.1045 0.655745 15.9541 1.55437 15.9305 2.67158C15.9069 3.76451 15.1281 4.51741 14.0188 4.49313Z" fill="#FC6435"/>
<path d="M79.133 4.49313C78.0237 4.49313 77.2921 3.76451 77.2685 2.62301C77.2449 1.53009 78.0473 0.680032 79.0858 0.680032C80.1714 0.655745 81.0683 1.55437 81.0446 2.6473C81.021 3.69165 80.195 4.49313 79.133 4.49313Z" fill="#FC6435"/>
</svg>

<svg xmlns="http://www.w3.org/2000/svg" fill="none" viewBox="0 0 113 23"><defs/><path fill="#FC6435" d="M109.65 13.87c.28-1.8-.33-3.09-1.68-3.48-1.65-.48-2.88.3-3.68 2.36h-2.74c-.37-1.92 1.59-4.54 3.73-4.83 1.37-.2 2.83-.17 4.18.12 1.7.36 2.95 1.7 3.1 3.45.3 3.69.3 7.38.42 11.15h-3.02c-.1-.37-.22-.73-.36-1.2a5.8 5.8 0 01-5.69 1.27c-1.86-.56-2.88-1.94-2.92-3.91-.05-1.97.9-3.55 2.76-4 1.91-.5 3.87-.64 5.9-.93zm-3.28 6.48c2.07 0 3.37-1.14 3.47-3.08.02-.58-.12-.95-.76-.88-1.08.1-2.22.05-3.25.34-.62.17-1.37.73-1.63 1.32-.6 1.36.38 2.3 2.17 2.3zM52.72 22.64h-2.88l-.23-1.1c-.24.1-.45.17-.64.3a5.66 5.66 0 01-5.14.84c-1.75-.48-2.74-1.72-2.86-3.66-.14-2 .54-3.52 2.27-4.06 1.65-.5 3.44-.65 5.19-.87 1.44-.17 1.49-.17 1.2-1.58-.3-1.41-.94-2.07-2.15-2.21-1.48-.17-2.38.39-3.02 1.75-.14.31-.56.63-.87.68-.73.1-1.46.02-2.24.02.1-1.8.8-3.1 2.1-4.03 2.1-1.48 4.36-1.46 6.6-.46 2.1.94 2.67 2.94 2.7 5.1 0 3.06-.03 6.1-.03 9.28zm-3.06-6.37c-1.6.22-3.1.3-4.51.66-.5.12-1.04 1-1.11 1.58-.05.5.45 1.33.92 1.55a3.4 3.4 0 003.56-.41c1.04-.73 1.28-1.85 1.14-3.38zM32.4 22.56c-.23.08-.26.1-.3.1-3.12.15-3.12.15-4.82-2.55-.56-.9-1.15-1.8-1.81-2.87-.9 1.41-1.77 2.65-2.5 3.99-.6 1.09-1.33 1.7-2.6 1.48-.52-.1-1.09-.03-1.87-.03 1.16-1.89 2.1-3.69 3.3-5.31 1.19-1.6 1.33-2.9 0-4.52-1.15-1.41-1.98-3.09-3.1-4.88 1.22 0 2.26-.05 3.27.04.29.03.57.5.78.8.9 1.37 1.75 2.75 2.7 4.28.91-1.46 1.74-2.67 2.45-3.98.47-.9 1.06-1.29 2.05-1.17.64.07 1.32.03 2.22.03-1.4 2.2-2.6 4.27-3.92 6.24-.47.73-.45 1.24 0 1.92 1.42 2.06 2.74 4.2 4.15 6.43zM95.42 13.3c-1.02-2.54-2.57-3.49-4.8-2.95-1.98.48-3.3 2.7-3.09 5.24.29 3.48 2.5 5.4 5.36 4.5.73-.22 1.65-.8 1.89-1.46.54-1.43 1.49-1.26 2.53-1.14.3.02.59.14.9.22-.7 3.54-3.6 5.56-7.42 5.2-3.77-.37-6.3-3.38-6.32-7.56-.03-4.15 2.38-7.26 5.92-7.63 4.3-.43 7.03 1.36 7.84 5.4-.97.07-1.92.14-2.81.19zM64.6 2.65c-3.07.31-3.97 1.5-3.57 4.51.05.3.5.68.8.73.85.1 1.7.03 2.65.03v2.62h-3.45V22.6h-3.02v-12c-.54-.03-.94-.05-1.37-.05-1.23-.02-1.89-1.07-1.27-2.2.14-.28.7-.37 1.1-.4 1.54-.07 1.5-.05 1.56-1.6.05-1.05.12-2.11.45-3.09a4.92 4.92 0 015.27-3.2c.3.05.73.5.8.85.14.53.04 1.12.04 1.75zM2.4 10.54H0V8.01c.28-.02.52-.07.73-.07 1.91-.02 1.82.32 1.82-1.9v-3.2c.78 0 1.46.03 2.15 0 .66-.05.92.24.87.92-.05 1.02.02 2.02-.05 3.04-.04.92.33 1.21 1.18 1.17.8-.05 1.63 0 2.5 0v2.62c-.9 0-1.81.05-2.73 0-.74-.05-.97.24-.95.97.03 1.87 0 3.72 0 5.59 0 2.28.73 3 2.98 3h.68v2.41c-3.35 1.48-6.6-.65-6.63-4.44-.02-2.38 0-4.76-.02-7.17 0-.07-.05-.14-.12-.4zM67.57 8.01h2.76l.17 1.7c1.08-1.2 2.24-2.1 4-1.89 0 .73.08 1.46-.02 2.14a1.2 1.2 0 01-.7.8c-2.2.53-3.28 1.85-3.28 4.18-.03 2.52 0 5.07 0 7.67h-2.9c-.03-4.8-.03-9.62-.03-14.6zM12.56 22.61V7.94c.82 0 1.6-.1 2.33.05.26.05.57.66.57 1.02.05 3.64.02 7.26.02 10.9v2.7h-2.92zM77.67 8.01h2.83v14.6h-2.83V8.01zM38.14 20.91c.02 1.12-.8 2-1.89 2.02-1.06.02-1.91-.85-1.93-2a2 2 0 011.88-2.03c1.07 0 1.92.9 1.94 2.01zM14.02 4.5c-1.11 0-1.82-.76-1.82-1.9S12.93.68 14.02.68a1.9 1.9 0 011.91 2 1.78 1.78 0 01-1.91 1.81zM79.13 4.5c-1.1 0-1.84-.74-1.86-1.88A1.83 1.83 0 0179.09.68a1.93 1.93 0 011.95 1.97 1.87 1.87 0 01-1.9 1.84z"/></svg>
